icons/pencil-outline.svg

<svg xmlns="http://www.w3.org/2000/svg" width="24" height="24" viewBox="0 0 24 24">
  <path d="M7.70710678,21.7071068 C7.5195704,21.8946432 7.26521649,22 7,22 L7,22 L3,22 C2.44771525,22 2,21.5522847 2,21 L2,21 L2,17 C2,16.7347835 2.10535684,16.4804296 2.29289322,16.2928932 L2.29289322,16.2928932 L15.8786797,2.70710678 C17.0502525,1.53553391 18.9497475,1.53553391 20.1213203,2.70710678 L20.1213203,2.70710678 L21.2928932,3.87867966 C22.4644661,5.05025253 22.4644661,6.94974747 21.2928932,8.12132034 L21.2928932,8.12132034 L18.7137795,10.7003718 C18.7115681,10.7026247 18.7093438,10.7048697 18.7071068,10.7071068 Z M13.999,7.41342712 L4,17.414 L4,20 L6.584,20 L16.585,9.99942712 L13.999,7.41342712 Z M18.7071068,4.12132034 C18.3165825,3.73079605 17.6834175,3.73079605 17.2928932,4.12132034 L17.2928932,4.12132034 L15.414,5.99942712 L17.999,8.58442712 L19.8786797,6.70710678 C20.2091233,6.37666315 20.2599608,5.87249453 20.0311921,5.48859705 L19.9618683,5.38710056 L19.8786797,5.29289322 Z"/>
</svg>

<svg xmlns="http://www.w3.org/2000/svg" viewBox="0 0 24 24">
  <path d="M7.7 21.7a1 1 0 0 1-.7.3H3a1 1 0 0 1-1-1v-4a1 1 0 0 1 .3-.7L15.87 2.7a3 3 0 0 1 4.24 0l1.17 1.18a3 3 0 0 1 0 4.24L18.7 10.7zM14 7.42l-10 10V20h2.58l10-10L14 7.4zm4.7-3.29a1 1 0 0 0-1.4 0L15.4 6 18 8.58l1.88-1.87a1 1 0 0 0 .15-1.22l-.07-.1-.08-.1z"/>
</svg>
